svg/system/settings_7_line.svg

<?xml version="1.0" encoding="UTF-8"?>
<svg width="24px" height="24px" viewBox="0 0 24 24" version="1.1" xmlns="http://www.w3.org/2000/svg" xmlns:xlink="http://www.w3.org/1999/xlink">
    <title>setting_line</title>
    <g id="Icon" stroke="none" stroke-width="1" fill="none" fill-rule="evenodd">
        <g id="System" transform="translate(-240.000000, -480.000000)">
            <g id="setting_line" transform="translate(240.000000, 480.000000)">
                <path d="M24,0 L24,24 L0,24 L0,0 L24,0 Z M12.5935,23.2578 L12.5819,23.2595 L12.5109,23.295 L12.4919,23.2987 L12.4767,23.295 L12.4057,23.2595 C12.3958,23.2564 12.387,23.259 12.3821,23.2649 L12.378,23.2758 L12.3609,23.7031 L12.3659,23.7235 L12.3769,23.7357 L12.4805,23.8097 L12.4953,23.8136 L12.5071,23.8097 L12.6107,23.7357 L12.6233,23.7197 L12.6267,23.7031 L12.6096,23.2758 C12.6076,23.2657 12.601,23.2593 12.5935,23.2578 Z M12.8584,23.1453 L12.8445,23.1473 L12.6598,23.2397 L12.6499,23.2499 L12.6472,23.2611 L12.6651,23.6906 L12.6699,23.7034 L12.6784,23.7105 L12.8793,23.8032 C12.8914,23.8069 12.9022,23.803 12.9078,23.7952 L12.9118,23.7812 L12.8777,23.1665 C12.8753,23.1546 12.8674,23.147 12.8584,23.1453 Z M12.143,23.1473 C12.1332,23.1424 12.1222,23.1453 12.1156,23.1526 L12.1099,23.1665 L12.0758,23.7812 C12.0751,23.7927 12.0828,23.8019 12.0926,23.8046 L12.1083,23.8032 L12.3092,23.7105 L12.3186,23.7024 L12.3225,23.6906 L12.3404,23.2611 L12.3372,23.2485 L12.3278,23.2397 L12.143,23.1473 Z" id="MingCute" fill-rule="nonzero"></path>
                <path d="M12,2 C12.5523,2 13,2.44772 13,3 L13,4.06189 C13.7371,4.1538 14.443,4.34598 15.1037,4.62433 L15.634,3.70582 C15.9101,3.22752 16.5217,3.06365 17,3.33979 C17.4783,3.61593 17.6422,4.22752 17.366,4.70582 L16.8349,5.62577 C17.4152,6.0666 17.9334,6.58484 18.3742,7.16512 L19.2942,6.63397 C19.7725,6.35783 20.3841,6.52171 20.6602,7 C20.9364,7.47829 20.7725,8.08988 20.2942,8.36603 L19.3757,8.89635 C19.654,9.55704 19.8462,10.263 19.9381,11 L21,11 C21.5523,11 22,11.4477 22,12 C22,12.5523 21.5523,13 21,13 L19.9381,13 C19.8462,13.7371 19.654,14.443 19.3757,15.1037 L20.2942,15.634 C20.7725,15.9101 20.9364,16.5217 20.6603,17 C20.3841,17.4783 19.7725,17.6422 19.2942,17.366 L18.3742,16.8349 C17.9334,17.4152 17.4152,17.9334 16.8349,18.3742 L17.366,19.2942 C17.6422,19.7725 17.4783,20.3841 17,20.6602 C16.5217,20.9364 15.9101,20.7725 15.634,20.2942 L15.1037,19.3757 C14.443,19.654 13.7371,19.8462 13,19.9381 L13,21 C13,21.5523 12.5523,22 12,22 C11.4477,22 11,21.5523 11,21 L11,19.9381 C10.2629,19.8462 9.55703,19.654 8.89633,19.3757 L8.36603,20.2942 C8.08988,20.7725 7.47829,20.9364 7,20.6602 C6.52171,20.3841 6.35783,19.7725 6.63397,19.2942 L7.16511,18.3742 C6.58483,17.9334 6.06659,17.4152 5.62576,16.8349 L4.70577,17.366 C4.22747,17.6422 3.61588,17.4783 3.33974,17 C3.0636,16.5217 3.22747,15.9101 3.70576,15.634 L4.62433,15.1037 C4.34597,14.443 4.1538,13.737 4.06189,13 L3,13 C2.44772,13 2,12.5523 2,12 C2,11.4477 2.44772,11 3,11 L4.06189,11 C4.1538,10.263 4.34597,9.55704 4.62433,8.89635 L3.70578,8.36603 C3.22749,8.08988 3.06361,7.47829 3.33975,7 C3.6159,6.52171 4.22749,6.35783 4.70578,6.63397 L5.62576,7.16512 C6.06658,6.58484 6.58483,6.06659 7.16511,5.62577 L6.63397,4.70581 C6.35783,4.22752 6.52171,3.61593 7,3.33979 C7.47829,3.06364 8.08988,3.22752 8.36603,3.70581 L8.89633,4.62433 C9.55703,4.34598 10.2629,4.1538 11,4.06189 L11,3 C11,2.44772 11.4477,2 12,2 Z M12,13.1547 L7.37639,15.8242 C7.82152,16.3617 8.35861,16.8204 8.96355,17.1761 L9.03698,17.2185 L9.03698,17.2185 C9.91109,17.7159 10.9224,18 12,18 C12.96984,18 13.885977,17.769879 14.6967249,17.3613231 L15.0365,17.176 L15.0365,17.176 C15.6414,16.8204 16.1785,16.3617 16.6236,15.8242 L12,13.1547 Z M11,6.08296 C10.3970857,6.18410286 9.82468327,6.3751649 9.29702472,6.64187627 L9.03699,6.78147 L8.96354,6.82396 L8.96354,6.82396 C8.169083,7.291024 7.4916467,7.9357696 6.98584049,8.7035947 L6.82367,8.96402 L6.78174,9.03652 C6.28419,9.91074 6,10.9222 6,12 C6,12.6309429 6.09738367,13.2391102 6.27795044,13.8103329 L6.3751,14.0928 L11,11.4226 L11,6.08296 Z M13,6.08296 L13,11.4227 L17.6249,14.0928 C17.8674,13.4412 18,12.7361 18,12 C18,11.02998 17.769798,10.1137359 17.3610801,9.30289548 L17.2183,9.03659 L17.185975,8.982035 L17.1763,8.96395 C16.70929,8.169502 16.064647,7.4920423 15.2969002,6.98618758 L14.9629,6.78143 C14.4505857,6.48991571 13.8911776,6.27167245 13.2988446,6.14095746 L13,6.08296 Z" id="形状" fill="#09244B"></path>
            </g>
        </g>
    </g>
</svg>

<svg xmlns="http://www.w3.org/2000/svg" width="24" height="24"><g fill="none" fill-rule="evenodd"><path d="M24 0v24H0V0h24ZM12.594 23.258l-.012.002-.071.035-.02.004-.014-.004-.071-.036c-.01-.003-.019 0-.024.006l-.004.01-.017.428.005.02.01.013.104.074.015.004.012-.004.104-.074.012-.016.004-.017-.017-.427c-.002-.01-.009-.017-.016-.018Zm.264-.113-.014.002-.184.093-.01.01-.003.011.018.43.005.012.008.008.201.092c.012.004.023 0 .029-.008l.004-.014-.034-.614c-.003-.012-.01-.02-.02-.022Zm-.715.002a.023.023 0 0 0-.027.006l-.006.014-.034.614c0 .012.007.02.017.024l.015-.002.201-.093.01-.008.003-.011.018-.43-.003-.012-.01-.01-.184-.092Z"/><path fill="#09244B" d="M12 2a1 1 0 0 1 1 1v1.062a7.946 7.946 0 0 1 2.104.562l.53-.918a1 1 0 1 1 1.732 1l-.531.92c.58.44 1.098.959 1.54 1.54l.92-.532a1 1 0 1 1 1 1.732l-.92.53c.279.661.471 1.367.563 2.104H21a1 1 0 1 1 0 2h-1.062a7.948 7.948 0 0 1-.562 2.104l.918.53a1 1 0 1 1-1 1.732l-.92-.531a8.044 8.044 0 0 1-1.54 1.54l.532.92a1 1 0 1 1-1.732 1l-.53-.92c-.661.279-1.367.471-2.104.563V21a1 1 0 1 1-2 0v-1.062a7.947 7.947 0 0 1-2.104-.562l-.53.918a1 1 0 1 1-1.732-1l.531-.92a8.046 8.046 0 0 1-1.54-1.54l-.92.532a1 1 0 1 1-1-1.732l.92-.53A7.947 7.947 0 0 1 4.061 13H3a1 1 0 1 1 0-2h1.062a7.946 7.946 0 0 1 .562-2.104l-.918-.53a1 1 0 0 1 1-1.732l.92.531c.44-.58.959-1.098 1.54-1.54l-.532-.92a1 1 0 0 1 1.732-1l.53.92A7.946 7.946 0 0 1 11 4.061V3a1 1 0 0 1 1-1Zm0 11.155-4.624 2.67c.446.537.983.995 1.588 1.351l.073.043A5.972 5.972 0 0 0 12 18c.97 0 1.886-.23 2.697-.639l.34-.185a6.03 6.03 0 0 0 1.587-1.352L12 13.154Zm-1-7.072a5.957 5.957 0 0 0-1.703.559l-.26.14-.073.042a6.03 6.03 0 0 0-1.978 1.88l-.162.26-.042.073A5.973 5.973 0 0 0 6 12c0 .63.097 1.24.278 1.81l.097.283L11 11.423v-5.34Zm2 0v5.34l4.625 2.67A5.988 5.988 0 0 0 18 12c0-.97-.23-1.886-.639-2.697l-.143-.266-.032-.055-.01-.018a6.031 6.031 0 0 0-1.88-1.978l-.333-.205a5.96 5.96 0 0 0-1.664-.64L13 6.083Z"/></g></svg>
